media/img/products/vpn/resource-center/thumbs_up_on.svg

<svg width="42" height="38" viewBox="0 0 42 38" fill="none" xmlns="http://www.w3.org/2000/svg">
<path d="M36.5402 13.1043L38.7242 13.1043C40.5326 13.1043 42.0002 14.5719 42.0002 16.3803L42.0002 33.8526C42.0002 35.661 40.5326 37.1287 38.7242 37.1287L36.5402 37.1287C34.7318 37.1287 33.2641 35.661 33.2641 33.8526L33.2641 16.3803C33.2641 14.5719 34.7318 13.1043 36.5402 13.1043Z" fill="#0060DF"/>
<path d="M5.38024 10.752C1.71105 10.752 -0.881395 14.3469 0.280512 17.8283L4.75997 31.2688C5.49162 33.4638 7.54461 34.9446 9.85969 34.9446L28.8958 34.9446L28.8958 15.238L24.1913 8.06346L21.9265 1.26674C21.6731 0.511064 20.9655 -6.93282e-07 20.1662 -7.63164e-07L20.1596 -7.63736e-07C17.9319 -9.58489e-07 16.1279 1.8062 16.1279 4.03173L16.1279 9.9461L15.322 10.752L5.38024 10.752V10.752Z" fill="#0060DF"/>
</svg>

<svg width="42" height="38" fill="none" xmlns="http://www.w3.org/2000/svg"><path d="M36.54 13.104h2.184A3.277 3.277 0 0 1 42 16.38v17.473a3.277 3.277 0 0 1-3.276 3.276H36.54a3.277 3.277 0 0 1-3.276-3.276V16.38a3.277 3.277 0 0 1 3.276-3.276ZM5.38 10.752c-3.669 0-6.261 3.595-5.1 7.076l4.48 13.44a5.375 5.375 0 0 0 5.1 3.677h19.036V15.238L24.19 8.063l-2.264-6.796A1.857 1.857 0 0 0 20.166 0h-.007a4.032 4.032 0 0 0-4.032 4.032v5.914l-.806.806H5.38Z" fill="#0060DF"/></svg>
